icons/aws-rds.svg

<svg xmlns="http://www.w3.org/2000/svg" viewBox="0 0 256 288.504">
  <path fill="#1a476f" d="m0 224.742 29.972 35.125 2.695-3.201V32l-2.695-3.395L0 63.717v161.025"/>
  <path fill="#1f5b98" d="m29.976 259.867 57.27 28.633 2.382-3.833L89.667 3l-2.381-3-57.31 28.541v231.326"/>
  <path fill="#2d72b8" d="m256 63.717-29.98-35.112-3.353 1.062.666 227.333 2.687 2.867L256 224.746V63.717"/>
  <path fill="#5294cf" d="m168.75 288.5 57.27-28.633V28.541L168.71 0 166 3.667l.039 280.666 2.711 4.167"/>
  <path fill="#2d72b8" d="M87.286 0h81.424v288.504H87.286z"/>
</svg>

<?xml version="1.0" encoding="UTF-8" standalone="no"?>
<svg width="256px" height="289px" viewBox="0 0 256 289" version="1.1" xmlns="http://www.w3.org/2000/svg" xmlns:xlink="http://www.w3.org/1999/xlink" preserveAspectRatio="xMidYMid">
	<g>
		<path d="M0,224.742 L29.972,259.867 L32.667,256.666 L32.667,32 L29.972,28.605 L0,63.717 L0,224.742" fill="#1A476F"></path>
		<path d="M29.976,259.867 L87.246,288.5 L89.628,284.667 L89.667,3 L87.286,0 L29.976,28.541 L29.976,259.867" fill="#1F5B98"></path>
		<path d="M256,63.717 L226.02,28.605 L222.667,29.667 L223.333,257 L226.02,259.867 L256,224.746 L256,63.717" fill="#2D72B8"></path>
		<path d="M168.75,288.5 L226.02,259.867 L226.02,28.541 L168.71,0 L166,3.667 L166.039,284.333 L168.75,288.5" fill="#5294CF"></path>
		<path d="M87.286,0 L168.71,0 L168.71,288.504 L87.286,288.504 L87.286,0 Z" fill="#2D72B8"></path>
	</g>
</svg>
